src/assets/outline/Figma.svg

<svg width="24" height="24" viewBox="0 0 24 24"  xmlns="http://www.w3.org/2000/svg">
<path d="M12.7498 9.41977H8.6698C6.4198 9.41977 4.58984 7.58975 4.58984 5.33975C4.58984 3.08975 6.4198 1.25977 8.6698 1.25977H12.7498V9.41977ZM8.6698 2.74976C7.2498 2.74976 6.08984 3.90974 6.08984 5.32974C6.08984 6.74974 7.2498 7.90976 8.6698 7.90976H11.2498V2.73975H8.6698V2.74976Z" />
<path d="M12.7498 16.0799H8.6698C6.4198 16.0799 4.58984 14.2499 4.58984 11.9999C4.58984 9.74991 6.4198 7.91992 8.6698 7.91992H12.7498V16.0799ZM8.6698 9.41992C7.2498 9.41992 6.08984 10.5799 6.08984 11.9999C6.08984 13.4199 7.2498 14.5799 8.6698 14.5799H11.2498V9.40991H8.6698V9.41992Z" />
<path d="M8.6698 22.7498C6.4198 22.7498 4.58984 20.9199 4.58984 18.6699C4.58984 16.4199 6.4198 14.5898 8.6698 14.5898H12.7498V18.6699C12.7498 20.9199 10.9198 22.7498 8.6698 22.7498ZM8.6698 16.0798C7.2498 16.0798 6.08984 17.2399 6.08984 18.6599C6.08984 20.0799 7.2498 21.2398 8.6698 21.2398C10.0898 21.2398 11.2498 20.0799 11.2498 18.6599V16.0798H8.6698Z" />
<path d="M15.33 9.42001H11.25V1.25H15.33C17.58 1.25 19.41 3.07999 19.41 5.32999C19.42 7.57999 17.58 9.42001 15.33 9.42001ZM12.75 7.92001H15.33C16.75 7.92001 17.91 6.76 17.91 5.34C17.91 3.92 16.75 2.76001 15.33 2.76001H12.75V7.92001Z" />
<path d="M15.33 16.0799C13.08 16.0799 11.25 14.2499 11.25 11.9999C11.25 9.74991 13.08 7.91992 15.33 7.91992C17.58 7.91992 19.41 9.74991 19.41 11.9999C19.41 14.2499 17.58 16.0799 15.33 16.0799ZM15.33 9.41992C13.91 9.41992 12.75 10.5799 12.75 11.9999C12.75 13.4199 13.91 14.5799 15.33 14.5799C16.75 14.5799 17.91 13.4199 17.91 11.9999C17.91 10.5799 16.76 9.41992 15.33 9.41992Z" />
</svg>

<?xml version="1.0" encoding="UTF-8"?>
<svg width="24" height="24" viewBox="0 0 24 24" xmlns="http://www.w3.org/2000/svg">
 <path d="m12.75 9.4198h-4.08c-2.25 0-4.08-1.83-4.08-4.08s1.83-4.08 4.08-4.08h4.08v8.16zm-4.08-6.67c-1.42 0-2.58 1.16-2.58 2.58s1.16 2.58 2.58 2.58h2.58v-5.17h-2.58v0.01001z"/>
 <path d="m12.75 16.08h-4.08c-2.25 0-4.08-1.83-4.08-4.08 0-2.25 1.83-4.08 4.08-4.08h4.08v8.16zm-4.08-6.66c-1.42 0-2.58 1.16-2.58 2.58s1.16 2.58 2.58 2.58h2.58v-5.17h-2.58v0.01001z"/>
 <path d="m8.6698 22.75c-2.25 0-4.08-1.8299-4.08-4.0799s1.83-4.0801 4.08-4.0801h4.08v4.0801c0 2.25-1.83 4.0799-4.08 4.0799zm0-6.67c-1.42 0-2.58 1.1601-2.58 2.5801s1.16 2.5799 2.58 2.5799 2.58-1.1599 2.58-2.5799v-2.5801h-2.58z"/>
 <path d="m15.33 9.42h-4.08v-8.17h4.08c2.25 0 4.08 1.83 4.08 4.08 0.01 2.25-1.83 4.09-4.08 4.09zm-2.58-1.5h2.58c1.42 0 2.58-1.16 2.58-2.58s-1.16-2.58-2.58-2.58h-2.58v5.16z"/>
 <path d="m15.33 16.08c-2.25 0-4.08-1.83-4.08-4.08 0-2.25 1.83-4.08 4.08-4.08s4.08 1.83 4.08 4.08c0 2.25-1.83 4.08-4.08 4.08zm0-6.66c-1.42 0-2.58 1.16-2.58 2.58s1.16 2.58 2.58 2.58 2.58-1.16 2.58-2.58-1.15-2.58-2.58-2.58z"/>
</svg>
